X: 38787
T: Stumpie
R: strathspey
M: 4/4
K: Gmajor
|:D|G>B g2 a<f g>e|G>B g2 a<AA<B|G>B g2 a<f g>e|d>BA>c B<G G:|
c|B>d d/d/d c<e e/e/e|B<dd>B c>AA>c|B>d d/d/d c<ee<g|d<BA>c B>GG>c|
B>d d/d/d c<e e/e/e|B<dd>B c>AA>B|G>B g2 a<fg>e|d>BA>d B>G G||

